X: 101
T: The Miller of Drone
R: strathspey
M: C|
L: 1/8
Z: 2012 John Chambers <jc:trillian.mit.edu>
B: J. Anderson "Budget of Strathspeys, Reels and Country Dances" (Early 1800s) p.10 #1
F: http://imslp.org/wiki/Anderson%27s_Budget_of_Strathspeys,_Reels_and_Country_Dances_(Various)
K: D
(f/e/) |\
d>BB>d ABAF | DD D>f e2e(f/e/) | d>BB>d A>B AF | A>BA>c d2d(f/e/) |
d>BB>d A>BA>F | DD g>f e2(e/f/g) | a>ef>c d>AB>F | A>AB>c d2d |]
(f/g/) |\
a>ff>d' .a.a (b/a/)(g/f/) | a>ff>d' b2 (b/c'/)(d'/b/) | affd' aa (b/a/)(g/f/) | g>ef>d B2B(f/e/) |
affd' aa (b/a/)(g/f/) | affd' b2(b>c') | (3d'c'b (3abc' (3d'ag (3fed | g>ef>d B2B |]

%%sep 2 1 500
%%sep 1 1 500

